symbols/web/railway_alert/materialsymbolsoutlined/railway_alert_gradN25_20px.svg

<svg xmlns="http://www.w3.org/2000/svg" height="20" width="20"><path d="M8.396 14.042q.5 0 .864-.354.365-.355.365-.876 0-.52-.365-.874-.364-.355-.885-.355-.5 0-.854.355-.354.354-.354.874 0 .521.354.876.354.354.875.354Zm-4.854 4.041v-.812l1.208-.813q-1.188 0-2-.833t-.812-2.021V5.958q0-1.75 1.5-2.5t4.937-.75h1.396q-.146.375-.302.802-.157.428-.198.844h-.875q-1.875 0-2.979.188-1.105.187-1.563.583H9.25q0 .458.042.854.041.396.187.792H3.583v2.375h7.313q.479.479 1.073.844.593.364 1.26.572v.25H3.583v2.771q0 .521.334.875.333.354.833.354h7.312q.48 0 .823-.354.344-.354.344-.854v-3.042q.396.126.792.188t.854.083v2.771q0 1.188-.823 2.021t-1.99.833l1.188.813v.812Zm11.333-8.854q-1.729 0-2.896-1.177-1.167-1.177-1.167-2.885 0-1.729 1.167-2.896 1.167-1.167 2.896-1.167 1.708 0 2.885 1.188 1.178 1.187 1.178 2.875 0 1.708-1.178 2.885-1.177 1.177-2.885 1.177Zm-.417-3.25h.792v-3.25h-.792Zm.396 1.625q.188 0 .323-.125t.135-.312q0-.167-.135-.302-.135-.136-.323-.136-.166 0-.292.136-.124.135-.124.302 0 .187.124.312.126.125.292.125Zm-2.792 3.208H3.583h9.646-1.167ZM3.854 5.125H9.25Z"/></svg>

<svg xmlns="http://www.w3.org/2000/svg" height="20" width="20"><path d="M8.396 14.042Q8.896 14.042 9.26 13.688Q9.625 13.333 9.625 12.812Q9.625 12.292 9.26 11.938Q8.896 11.583 8.375 11.583Q7.875 11.583 7.521 11.938Q7.167 12.292 7.167 12.812Q7.167 13.333 7.521 13.688Q7.875 14.042 8.396 14.042ZM3.542 18.083V17.271L4.75 16.458Q3.562 16.458 2.75 15.625Q1.938 14.792 1.938 13.604V5.958Q1.938 4.208 3.438 3.458Q4.938 2.708 8.375 2.708Q8.688 2.708 9.062 2.708Q9.438 2.708 9.771 2.708Q9.625 3.083 9.469 3.51Q9.312 3.938 9.271 4.354Q9.083 4.354 8.823 4.354Q8.562 4.354 8.396 4.354Q6.521 4.354 5.417 4.542Q4.312 4.729 3.854 5.125H9.25Q9.25 5.583 9.292 5.979Q9.333 6.375 9.479 6.771H3.583V9.146H10.896Q11.375 9.625 11.969 9.99Q12.562 10.354 13.229 10.562V10.812H3.583V13.583Q3.583 14.104 3.917 14.458Q4.25 14.812 4.75 14.812H12.062Q12.542 14.812 12.885 14.458Q13.229 14.104 13.229 13.604V10.562Q13.625 10.688 14.021 10.75Q14.417 10.812 14.875 10.833V13.604Q14.875 14.792 14.052 15.625Q13.229 16.458 12.062 16.458L13.25 17.271V18.083ZM14.875 9.229Q13.146 9.229 11.979 8.052Q10.812 6.875 10.812 5.167Q10.812 3.438 11.979 2.271Q13.146 1.104 14.875 1.104Q16.583 1.104 17.76 2.292Q18.938 3.479 18.938 5.167Q18.938 6.875 17.76 8.052Q16.583 9.229 14.875 9.229ZM14.458 5.979H15.25V2.729H14.458ZM14.854 7.604Q15.042 7.604 15.177 7.479Q15.312 7.354 15.312 7.167Q15.312 7 15.177 6.865Q15.042 6.729 14.854 6.729Q14.688 6.729 14.562 6.865Q14.438 7 14.438 7.167Q14.438 7.354 14.562 7.479Q14.688 7.604 14.854 7.604ZM12.062 10.812H4.75Q4.229 10.812 3.906 10.812Q3.583 10.812 3.583 10.812H13.229Q13.229 10.812 12.896 10.812Q12.562 10.812 12.062 10.812ZM3.854 5.125Q4.312 5.125 5.417 5.125Q6.521 5.125 8.396 5.125Q8.562 5.125 8.823 5.125Q9.083 5.125 9.25 5.125Q9.25 5.125 9.25 5.125Q9.25 5.125 9.25 5.125Z"/></svg>
